!!!!SEGMENT: pl-kk--kk-i-2--052-002_pekiel-bartlomiej--missa-secunda-gloria.krn
!!!cenid: 16xx:1736
!!!COM: Pękiel, Bartłomiej
!!!COM-rismid: pe30105642
!!!CDT: <1633-~1670
!!!CNT: Polish
!!!OPR: Missa secunda
!!!OTL: Gloria
!!!OMV: 002
!!!PDT:
!!!AGN: Sacred; Mass
!!!SMS-siglum: PL-Kk
!!!SMS-shelfmark: Kk.I.2
!!!SMS-shelfwork: 052-002 M
!!!NIFC-rismid: 300258070
!!!URL-scan: https://repozytorium.nifc.pl/islandora/object/pl-kk%3A750/datastream/PDF/view#page=91
!!!ONB-nifc: Części mszy: Kyrie, Gloria, Credo, Sanctus, Benedictus, Agnus Dei; skany: C: 0092-0093; A: 0195-0196; T: 0294-0295; B: 0397
!!!key: F:ion
**kern	**text	**kern	**text	**kern	**text	**kern	**text
*part4	*part4	*part3	*part3	*part2	*part2	*part1	*part1
*staff4	*staff4	*staff3	*staff3	*staff2	*staff2	*staff1	*staff1
*I"BASVS	*	*I"TENOR	*	*I"ALTVS	*	*I"DISCANTVS	*
*I'B	*	*I'T	*	*I'A	*	*I'S	*
*Ibass	*	*Itenor	*	*Ialto	*	*Isoprn	*
*ICvox	*	*ICvox	*	*ICvox	*	*ICvox	*
*clefF4	*	*clefC4	*	*clefC4	*	*clefC3	*
*k[b-]	*	*k[b-]	*	*k[b-]	*	*k[b-]	*
*F:ion	*	*F:ion	*	*F:ion	*	*F:ion	*
*M2/1	*	*M2/1	*	*M2/1	*	*M2/1	*
*met(C|)	*	*met(C|)	*	*met(C|)	*	*met(C|)	*
=1-	=1-	=1-	=1-	=1-	=1-	=1-	=1-
*all\right	*	*all\right	*	*all\right	*	*all\right	*
!LO:TX:t=P:problem:czasami w miejscu kresek taktowych mała kreska nad pięciolinią:global	!	!LO:TX:t=P:problem:czasami w miejscu kresek taktowych mała kreska nad pięciolinią:global	!	!LO:TX:t=P:problem:czasami w miejscu kresek taktowych mała kreska nad pięciolinią:global	!	!LO:TX:t=P:problem:czasami w miejscu kresek taktowych mała kreska nad pięciolinią:global	!
!LO:TX:t=P:problem:kreska pseudotaktowa	!	!	!	!	!	!LO:TX:t=P:problem:kreska pseudotaktowa	!
1r	.	1c	ET	1r	.	0r	.
1F	Et	2F/	in	2r	.	.	.
.	.	4c\	ter-	1c\	ET	.	.
.	.	4B-\	.	.	.	.	.
=2-	=2-	=2-	=2-	=2-	=2-	=2-	=2-
2FF/	in	4A/	.	.	.	1f	ET
.	.	4G/	.	.	.	.	.
*2\right	*	*	*	*	*	*	*
!	!	!	!	!LO:TX:t=P:problem:kreska pseudotaktowa	!	!	!
2.F\	ter-	2.A/	.	2F/	in	.	.
*	*	*	*	*	*	*2\right	*
.	.	.	.	4F/	ter-	2c\	in
4E\	.	4G/	.	4G/	.	.	.
4D/	.	4F/	.	4.A/	.	2.f\	terr-
!LO:TX:t=P:problem:kreska pseudotaktowa	!	!LO:TX:t=P:problem:kreska pseudotaktowa	!	!	!	!	!
4C/	.	4E/	.	.	.	.	.
.	.	.	.	16G/LL	.	.	.
!	!	!	!	!LO:TX:t=P:problem:kreska pseudotaktowa	!	!	!
.	.	.	.	16A/JJ	.	.	.
=3-	=3-	=3-	=3-	=3-	=3-	=3-	=3-
*	*	*	*	*2\right	*	*	*
1.BB-	.	2.D/	.	2.B-\	.	.	.
.	.	.	.	.	.	4e\	.
.	.	.	.	.	.	4d\	.
!	!	!	!	!	!	!LO:TX:t=P:problem:kreska pseudotaktowa	!
.	.	4E/	.	4c\	.	4c/	.
.	.	2F/	.	2.d\	.	2.B-/	.
!	!	!LO:TX:t=P:problem:kreska pseudotaktowa	!	!	!	!	!
2BB-/	-ra	2F/	-ra	.	.	.	.
!	!	!	!	!LO:TX:t=P:problem:kreska pseudotaktowa	!	!	!
.	.	.	.	4d\	-ra	4B-/	-ra
=4-	=4-	=4-	=4-	=4-	=4-	=4-	=4-
1.FF	pax	1.F	pax	1.c	pax	1.A	pax
!LO:TX:t=P:problem:kreska pseudotaktowa	!	!	!	!LO:TX:t=P:problem:kreska pseudotaktowa	!	!LO:TX:t=P:problem:kreska pseudotaktowa	!
2AA/	ho-	2E/	ho-	2c\	ho-	2A/	ho-
*custos:GG	*	*	*	*	*	*	*
!LO:LB:g=original	!	!	!	!	!	!	!
=5-	=5-	=5-	=5-	=5-	=5-	=5-	=5-
!	!	!	!	!	!	!LO:N:acc=#	!
1.GG	-mi-	1.G	-mi-	2d\	-mi-	2Bn/	-mi-
.	.	.	.	1c	.	2c/	.
.	.	.	.	.	.	2.d\	.
!	!	!	!	!LO:TX:t=P:problem:kreska pseudotaktowa	!	!	!
!	!	!LO:TX:t=P:problem:kreska pseudotaktowa	!	!LO:N:acc=#	!	!	!
2GG/	-ni-	2G/	-ni-	2Bn\	-ni-	.	.
.	.	.	.	.	.	4d\	-ni-
=6-	=6-	=6-	=6-	=6-	=6-	=6-	=6-
!LO:TX:t=P:problem:kreska pseudotaktowa	!	!	!	!	!	!LO:TX:t=P:problem:kreska pseudotaktowa	!
1C	-b(us)	1G,	-b(us)	2c,\	-b(us)	1e	-bus
.	.	.	.	1c	bo-	.	.
!	!	!LO:TX:t=P:problem:kreska pseudotaktowa	!	!	!	!	!
1F	Bo-	1A	Bo-	.	.	2r	.
*	*	*	*	*lig	*	*	*
.	.	.	.	1A\	-nae	1f\	bo-
=7-	=7-	=7-	=7-	=7-	=7-	=7-	=7-
1D	-nae	1F	-nae	.	.	.	.
*	*	*	*	*col	*	*	*
!	!	!	!	!	!	!LO:TX:t=P:problem:kreska pseudotaktowa	!
.	.	.	.	2.d\	.	2d\	-nae
2.G\	Vo-	4B-/	Vo-	.	.	2.d\	vo-
*	*	*	*	*Xlig	*	*	*
.	.	4G/	-lun-	4c\	vo-	.	.
*	*	*	*	*Xcol	*	*	*
.	.	1d\	-ta-	1B-y\	-lun-	.	.
4F\	-lun-	.	.	.	.	4d\	-lun-
=8-	=8-	=8-	=8-	=8-	=8-	=8-	=8-
4E-X\	.	.	.	.	.	1g	-ta-
4D/	.	.	.	.	.	.	.
*	*	*2\right	*	*	*	*	*
!LO:TX:t=P:problem:kreska pseudotaktowa	!	!LO:TX:t=P:problem:kreska pseudotaktowa	!	!	!	!	!
2E-\	-ta-	2c\	.	4A/	-ta-	.	.
!	!	!	!	!LO:TX:t=P:problem:kreska pseudotaktowa	!	!	!
.	.	.	.	4G/	.	.	.
!	!	!	!	!	!	!LO:N:acc=-	!
2D,/	-tis	2d\	-tis	2A\	-tis	2f-\	-tis
!	!	!LO:TX:t=P:problem:kreska pseudotaktowa	!	!LO:TX:t=P:problem:kreska pseudotaktowa	!	!LO:TX:t=P:problem:kreska pseudotaktowa	!
2D/	lau-	2A/	lau-	2d\	Lau-	2f-\	Lau-
=9-	=9-	=9-	=9-	=9-	=9-	=9-	=9-
2.BB-/	-da-	2.B-\	-da-	2.d\	-da-	2.fny\	-da-
!LO:TX:t=P:problem:kreska pseudotaktowa	!	!LO:TX:t=P:problem:kreska pseudotaktowa	!	!LO:TX:t=P:problem:kreska pseudotaktowa	!	!LO:TX:t=P:problem:kreska pseudotaktowa	!
4BB-/	-m(us)	4B-\	-m(us)	4d\	-m(us)	4f\	-m(us)
2F\	te	2A/	te	2c\	te	2f\	te
!LO:TX:t=P:problem:kreska pseudotaktowa:między nutą a kropką	!	!	!	!LO:TX:t=P:problem:kreska pseudotaktowa:między nutą a kropką	!	!LO:TX:t=P:problem:kreska pseudotaktowa:między nutą a kropką	!
2.F\	be-	2.A/	be-	2.c\	Be-	2.f\	be-
=10-	=10-	=10-	=10-	=10-	=10-	=10-	=10-
.	.	.	-ne-	.	.	.	.
4Eny\	-ne-	4G/	-ne-	4c\	-ne-	4g\	-ne-
2.F\	-di-	8A/L	-di-	8c\L	-di-	8f\L	.
.	.	8G/	.	8B-\	.	8g\J	.
.	.	8F/	.	8A\	.	2a\	-di-
!	!	!LO:TX:t=P:problem:kreska pseudotaktowa	!	!LO:TX:t=P:problem:kreska pseudotaktowa	!	!	!
.	.	8E/J	.	8G\J	.	.	.
*	*	*	*	*custos:A	*	*	*
!	!	!	!	!LO:PB:g=original	!	!	!
.	.	4F/	.	8A\L	.	.	.
.	.	.	.	8B-\J	.	.	.
!	!	!	!	!	!	!LO:TX:t=P:problem:kreska pseudotaktowa	!
4E\	-ci-	4G/	.	4.c\	.	4g\	.
*	*	*custos:A	*	*	*	*custos:f	*
!LO:TX:t=P:problem:kreska pseudotaktowa	!	!LO:LB:g=original	!	!	!	!LO:LB:g=original	!
2D/	-m(us)	4A/	.	.	.	4f\	.
.	.	.	.	8c\	-ci-	.	.
!	!	!	!	!LO:TX:t=P:problem:kreska pseudotaktowa	!	!	!
!	!	!	!	!LO:N:acc=#	!	!	!
.	.	8G/	-ci-	4Bn\	-m(us)	8f\	-ci-
!	!	!LO:TX:t=P:problem:kreska pseudotaktowa	!	!	!	!LO:TX:t=P:problem:kreska pseudotaktowa	!
.	.	8F/	-mus	.	.	8f\	-m(us)
=11-	=11-	=11-	=11-	=11-	=11-	=11-	=11-
4C;,/	te	4G,/	te	4c\	te	4e-X,\	te
2C/	a-	2G/	A-	2c\	a-	2e-\	a-
!LO:TX:t=P:problem:kreska pseudotaktowa	!	!	!	!	!	!	!
!LO:N:acc=#	!	!LO:TX:t=P:problem:kreska pseudotaktowa	!	!LO:TX:t=P:problem:kreska pseudotaktowa	!	!LO:TX:t=P:problem:kreska pseudotaktowa	!
4BBn/	-do-	4G/	-do-	4d\	-do-	4d\	-do-
4.C/	-ra-	4.G/	-ra-	4.c\	-ra-	4.e-X\	-ra-
8C/	-m(us)	8G/	-mus	8c\	-m(us)	8e-\	-m(us)
!	!	!	!	!LO:N:acc=#	!	!LO:TX:t=P:problem:kreska pseudotaktowa	!
4GG/	te	4G/	te	4Bn\	te	2d\	te
!LO:TX:t=P:problem:kreska pseudotaktowa	!	!LO:TX:t=P:problem:kreska pseudotaktowa	!	!LO:TX:t=P:problem:kreska pseudotaktowa	!	!	!
4GG/	glo-	4G/	glo-	4B\	glo-	.	.
=12-	=12-	=12-	=12-	=12-	=12-	=12-	=12-
4AA/	-ri-	4F/	-ri-	4c\	-ri-	4r	.
4BB-X/	-fi-	4D/	-fi-	4d\	-fi-	4d\	glo-
!	!	!	!	!LO:TX:t=P:problem:kreska pseudotaktowa	!	!	!
4C/	-ca-	4G/	-ca-	2c\	-ca-	4e\	-ri-
!	!	!LO:TX:t=P:problem:kreska pseudotaktowa	!	!	!	!LO:TX:t=P:problem:kreska pseudotaktowa	!
8BB-/L	.	4A/	.	.	.	4f#X\	-fi-
!LO:TX:t=P:problem:kreska pseudotaktowa	!	!	!	!	!	!	!
8AA/J	.	.	.	.	.	.	.
!	!	!	!	!LO:N:acc=#	!	!	!
4.GG/	.	4d\	.	8Bn\L	.	4g\	-ca-
.	.	.	.	8G\J	.	.	.
.	.	4c\	.	2c\	.	8fny\L	.
8GG/	-m(us)	.	.	.	.	8e\J	.
*custos:GG	*	*	*	*	*	*	*
!LO:LB:g=original	!	!	!	!	!	!	!
!LO:TX:t=P:problem:kreska pseudotaktowa	!	!	!	!	!	!	!
2GG/	te	4.d\	.	.	.	4.d\	.
!	!	!	!	!LO:N:acc=#	!	!	!
.	.	.	.	4Bn\	-m(us)	.	.
!	!	!LO:TX:t=P:problem:kreska pseudotaktowa	!	!	!	!LO:TX:t=P:problem:kreska pseudotaktowa	!
.	.	8G/	-m(us)	.	.	8d\	-m(us)
=13-	=13-	=13-	=13-	=13-	=13-	=13-	=13-
4.C/	Gra-	2G/	te	2c\	te	2e\	te
8C/	-ti-	.	.	.	.	.	.
!	!	!	!	!LO:TX:t=P:problem:kreska pseudotaktowa	!	!LO:TX:t=P:problem:kreska pseudotaktowa	!
4D/	-as	4.F/	Gra-	2r	.	2r	.
!LO:TX:t=P:problem:kreska pseudotaktowa:między nutą a kropką	!	!	!	!	!	!	!
4.F\	a-	.	.	.	.	.	.
!	!	!LO:TX:t=P:problem:kreska pseudotaktowa	!	!	!	!	!
.	.	8F/	-ti-	.	.	.	.
.	.	4A/	-as	1r	.	4.c\	Gra-
8F\	-gi-	.	.	.	.	.	.
4E\	-m(us)	4.c\	a-	.	.	.	.
.	.	.	.	.	.	8c\	-ti-
!LO:TX:t=P:problem:kreska pseudotaktowa	!	!	!	!	!	!	!
2D/	ti-	.	.	.	.	4d\	-as
.	.	8c\	-gi-	.	.	.	.
!	!	!LO:TX:t=P:problem:kreska pseudotaktowa	!	!	!	!	!
!	!	!LO:N:acc=#	!	!	!	!LO:TX:t=P:problem:kreska pseudotaktowa:między nutą a kropką	!
.	.	4Bn\	-m(us)	.	.	4.f\	a-
=14-	=14-	=14-	=14-	=14-	=14-	=14-	=14-
4C/	-bi	8c\L	ti-	4.c\	gra-	.	.
.	.	8B-y\	.	.	.	8f\	-gi-
4C/	a-	8G\	.	.	.	4e\	-m(us)
.	.	8A\J	.	8c\	-ti-	.	.
4BB-/	-gi-	4B-\	.	4d\	-as	4d\	.
!LO:TX:t=P:problem:kreska pseudotaktowa	!	!LO:TX:t=P:problem:kreska pseudotaktowa	!	!LO:TX:t=P:problem:kreska pseudotaktowa:między nutą a kropką	!	!LO:TX:t=P:problem:przekreślona synkopowana wartość	!
4AA/	-mus	4c\	.	4.f\	a-	2c/	.
1GG	ti-	4d\	.	.	.	.	.
.	.	.	.	8f\	-gi-	.	.
!	!	!	!	!	!	!LO:TX:b:t=P:problem:# below	!
!	!	!	!	!	!	!LO:N:acc=#	!
.	.	4c\	.	4e-X\	-m(us)	4Bn/	Ti-
!	!	!	!	!LO:TX:t=P:problem:kreska pseudotaktowa	!	!	!
.	.	4d\	.	2d\	ti-	4c/	-bi
!	!	!LO:TX:t=P:problem:kreska pseudotaktowa	!	!	!	!LO:TX:t=P:problem:kreska pseudotaktowa	!
.	.	4G/	-bi	.	.	4r	.
=15-	=15-	=15-	=15-	=15-	=15-	=15-	=15-
!	!	!	!	!LO:N:acc=#	!	!	!
2C,/	-bi	4G/	.	2en\	-bi	2r	.
.	.	2c\	pro-	.	.	.	.
!	!	!	!	!LO:TX:t=P:problem:kreska pseudotaktowa	!	!LO:TX:t=P:problem:kreska pseudotaktowa	!
2F\	pro-	.	.	2r	.	2a\	pro-
!	!	!LO:TX:t=P:problem:kreska pseudotaktowa	!	!	!	!	!
.	.	4A/	-pter	.	.	.	.
2D/	-pter	2B-\	ma-	2d\	pro-	2f\	-pter
!	!	!LO:TX:t=P:problem:kreska pseudotaktowa	!	!LO:TX:t=P:problem:kreska pseudotaktowa	!	!LO:TX:t=P:problem:kreska pseudotaktowa	!
2E-X\	ma-	2G/	-gnam	2B-\	-pter	2g\	ma-
*	*	*custos:A	*	*	*	*	*
!	!	!LO:PB:g=original	!	!	!	!	!
=16-	=16-	=16-	=16-	=16-	=16-	=16-	=16-
2C/	-gn(am)	4.A/	glo-	2c\	ma-	2e\	-gn(am)
.	.	8A/	-ri-	.	.	.	.
!	!	!LO:TX:t=P:problem:kreska pseudotaktowa	!	!LO:TX:t=P:problem:kreska pseudotaktowa	!	!	!
4.D/	gl(o-	2F/	-am	2A/	-gn(am)	4.f\	glo-
8D/	-ri)-	.	.	.	.	8f\	-ri-
*	*	*	*	*	*	*custos:d	*
!	!	!	!	!	!	!LO:LB:g=original	!
2BB-/	-am	4.G/	gl(o-	4.B-\	gl(o-	2d\	-am
.	.	8G/	-ri)-	8B-\	-ri)-	.	.
*	*ij	*	*	*	*	*	*ij
!	!	!LO:TX:t=P:problem:kreska pseudotaktowa	!	!LO:TX:t=P:problem:kreska pseudotaktowa	!	!	!
4.C/	gl(o-	2E/	-am	2G/	-am	4.e\	glo-
!LO:TX:t=P:problem:kreska pseudotaktowa	!	!	!	!	!	!LO:TX:t=P:problem:kreska pseudotaktowa	!
8C/	-ri)-	.	.	.	.	8e\	-ri-
*	*	*	*	*custos:c	*	*	*
!	!	!	!	!LO:LB:g=original	!	!	!
=17-	=17-	=17-	=17-	=17-	=17-	=17-	=17-
2AA/	-am	2A/	tu-	2c\	Tu-	4c\	-am
*	*Xij	*	*	*	*	*	*Xij
.	.	.	.	.	.	2f\	tu-
4BB-/	Tu-	2G/	.	4d\	.	.	.
!	!	!	!	!LO:TX:t=P:problem:kreska pseudotaktowa	!	!LO:TX:t=P:problem:kreska pseudotaktowa	!
4C/	.	.	.	4c\	.	4e\	.
!	!	!LO:TX:t=P:problem:kreska pseudotaktowa podwójna	!	!	!	!	!
1FF	-am	1A	-am	1c	-am	1f	-am
=18-	=18-	=18-	=18-	=18-	=18-	=18-	=18-
*M3/1	*	*M3/1	*	*M3/1	*	*M3/1	*
!	!	!	!	!LO:TX:t=P:problem:kreska pseudotaktowa	!	!LO:TX:t=P:problem:kreska pseudotaktowa	!
1r	.	1.c	Do-	0.r	.	0.r	.
1.F	D(o-	.	.	.	.	.	.
.	.	2B-\	-mi-	.	.	.	.
*	*	*col	*	*	*	*	*
.	.	0A	-ne	.	.	.	.
!LO:TX:t=P:problem:kreska pseudotaktowa	!	!	!	!	!	!	!
2Eny\	-i)-	.	.	.	.	.	.
*	*	*Xcol	*	*	*	*	*
=19-	=19-	=19-	=19-	=19-	=19-	=19-	=19-
0D	-ne	.	.	1.d	Do-	1.f	D(o-
.	.	1.d	DE-	.	.	.	.
.	.	.	.	2c\	-i-	2e\	-mi)-
!	!	!	!	!LO:TX:t=P:problem:kreska pseudotaktowa	!	!LO:TX:t=P:problem:kreska pseudotaktowa	!
1.G	DE-	.	.	1B-	-ne	1d	-ne
!	!	!LO:TX:t=P:problem:kreska pseudotaktowa	!	!	!	!	!
.	.	2c\	-VS	.	.	.	.
=20-	=20-	=20-	=20-	=20-	=20-	=20-	=20-
!	!	!LO:TX:t=P:problem:kreska pseudotaktowa	!	!	!	!	!
.	.	0.B-	Rex	1d	De-	1.g	DE-
2F\	-us	.	.	.	.	.	.
!LO:TX:t=P:problem:kreska pseudotaktowa	!	!	!	!	!	!	!
0E-X	Rex	.	.	1e-X	-(us)	.	.
.	.	.	.	.	.	2f\	-(us)
!	!	!	!	!LO:TX:t=P:problem:kreska pseudotaktowa:między nutą a kropką	!	!LO:TX:t=P:problem:kreska pseudotaktowa	!
.	.	.	.	1.G	Rex	1e-X	Rex
*custos:G	*	*	*	*	*	*	*
!LO:LB:g=original	!	!	!	!	!	!	!
=21-	=21-	=21-	=21-	=21-	=21-	=21-	=21-
1G	cae-	1B-	cae-	.	.	1d	cae-
.	.	.	.	2G/	cae-	.	.
*	*	*lig	*	*col	*	*	*
!	!	!	!	!LO:TX:t=P:problem:kreska pseudotaktowa	!	!LO:TX:t=P:problem:kreska pseudotaktowa	!
0F	-le-	1B-	-le-	0c	-le-	0f	-le-
*	*	*	*	*Xcol	*	*	*
.	.	1A	.	.	.	.	.
*	*	*Xlig	*	*	*	*	*
=22-	=22-	=22-	=22-	=22-	=22-	=22-	=22-
1BB-,	-stis	1B-	-ſtis	1d,	-stis	1f	-ſtis
1B-	DE-	1r	.	1d	De-	1f	De-
!LO:TX:t=P:problem:kreska pseudotaktowa	!	!LO:TX:t=P:problem:kreska pseudotaktowa	!	!LO:TX:t=P:problem:kreska pseudotaktowa	!	!LO:TX:t=P:problem:kreska pseudotaktowa	!
1A	-VS	1r	.	1c	-(us)	1f	-(us)
=23-	=23-	=23-	=23-	=23-	=23-	=23-	=23-
0B-	Pa-	1r	.	0d	Pa-	0f	P(a-
.	.	1B-	DE-	.	.	.	.
!	!	!LO:TX:t=P:problem:kreska pseudotaktowa	!	!LO:TX:t=P:problem:kreska pseudotaktowa	!	!LO:TX:t=P:problem:kreska pseudotaktowa	!
1F	-ter	1A	-VS	1c	-ter	1f	-ter)
=24-	=24-	=24-	=24-	=24-	=24-	=24-	=24-
1r	.	2B-\	Pa-	2B-\	De[[(us)]]-	0d	De-
.	.	2c\	.	2A/	.	.	.
*	*ij	*col	*	*	*	*	*
1G	-DE-	0d	.	1G	.	.	.
!LO:TX:t=P:problem:kreska pseudotaktowa	!	!	!	!LO:TX:t=P:problem:kreska pseudotaktowa	!	!LO:TX:t=P:problem:kreska pseudotaktowa	!
1D	-VS	.	.	1F#X	-us	1d	-(us)
*	*	*Xcol	*	*	*	*	*
=25-	=25-	=25-	=25-	=25-	=25-	=25-	=25-
!	!	!LO:TX:t=P:problem:kreska pseudotaktowa	!	!	!	!	!
0G	Pa-	0.B-	-ter	1G	Pa-	(2d\	Pa-
.	.	.	.	.	.	2c\)	.
.	.	.	.	1B-	-ter	(2d\	.
.	.	.	.	.	.	2eny\)	.
!	!	!	!	!LO:TX:t=P:problem:kreska pseudotaktowa	!	!LO:TX:t=P:problem:kreska pseudotaktowa	!
1D	-ter	.	.	1d	om-	1f	-ter
*	*Xij	*	*	*	*	*	*
=26-	=26-	=26-	=26-	=26-	=26-	=26-	=26-
*	*	*	*	*	*	*lig	*
1E-X	Om-	1G	o-	0c	-ni-	1e-X	om-
1.G	-ni-	1.G	-mni-	.	.	1.d	-ni-
*	*	*	*	*	*	*Xlig	*
!	!	!	!	!LO:N:acc=#	!	!	!
.	.	.	.	1Bn	-po-	.	.
!	!	!LO:TX:t=P:problem:kreska pseudotaktowa	!	!	!	!LO:TX:t=P:problem:kreska pseudotaktowa	!
2G\	-po-	2G/	-po-	.	.	2d\	-po-
*	*	*custos:G	*	*	*	*custos:e	*
!	!	!LO:LB:g=original	!	!	!	!LO:PB:g=original	!
=27-	=27-	=27-	=27-	=27-	=27-	=27-	=27-
*M2/1	*	*M2/1	*	*M2/1	*	*M2/1	*
*met(C|)	*	*met(C|)	*	*met(C|)	*	*met(C|)	*
1C	-tens	2G/	-tens	2c,\	-tens	4e,\	-tens
.	.	.	.	.	.	4.g\	D(o-
.	.	4.c\	De-	4.e\	D(o-	.	.
.	.	.	.	.	.	8f\	-mi)-
!	!	!	!	!	!	!LO:TX:t=P:problem:przekreślona synkopowana wartość	!
.	.	.	.	.	.	2e\	-ne
!	!	!LO:TX:t=P:problem:kreska pseudotaktowa	!	!LO:TX:t=P:problem:kreska pseudotaktowa	!	!	!
.	.	8B-\	-mi-	8d\	-mi)-	.	.
!LO:TX:t=P:problem:kreska pseudotaktowa	!	!	!	!	!	!	!
0r	.	2A\	-ne	2c\	-ne	.	.
.	.	.	.	.	.	4.a\	Fi-
.	.	4.d\	Fi-	4.f\	Fi-	.	.
.	.	.	.	.	.	8g\	-li
!	!	!	!	!	!	!LO:TX:t=P:problem:przekreślona synkopowana wartość	!
.	.	.	.	.	.	2f\	V-
!	!	!LO:TX:t=P:problem:kreska pseudotaktowa	!	!LO:TX:t=P:problem:kreska pseudotaktowa	!	!	!
.	.	8c\	-li	8e\	-li	.	.
*	*	*	*	*custos:d	*	*	*
!	!	!	!	!LO:LB:g=original	!	!	!
=28-	=28-	=28-	=28-	=28-	=28-	=28-	=28-
.	.	4B-\	V-	4d\	V-	.	.
.	.	4A/	-ni-	4c\	-ni-	4f\	-ni-
.	.	4.G/	-ge-	4.B-\	-ge-	4.f\	-ge-
!	!	!LO:TX:t=P:problem:kreska pseudotaktowa	!	!LO:TX:t=P:problem:kreska pseudotaktowa	!	!LO:TX:t=P:problem:kreska pseudotaktowa	!
.	.	8G/	-ni-	8B-\	-ni-	8e\	-ni-
4FF/	JE-	2F/	-te	1A	-te	2f,\	-te
4GG/	.	.	.	.	.	.	.
4AA/	.	2r	.	.	.	4c/	JE-
!	!	!	!	!	!	!LO:TX:t=P:problem:kreska pseudotaktowa	!
4BB-/	.	.	.	.	.	4d\	.
=29-	=29-	=29-	=29-	=29-	=29-	=29-	=29-
2.C/	.	4C/	JE-	2.G/	JE-	4e\	.
.	.	4D/	.	.	.	4f\	.
!	!	!	!	!	!	!LO:TX:t=P:problem:kreska pseudotaktowa:między nutą a kropką	!
.	.	4E/	.	.	.	2.g\	.
!	!	!LO:TX:t=P:problem:kreska pseudotaktowa	!	!LO:TX:t=P:problem:kreska pseudotaktowa	!	!	!
8BB-/L	.	4F/	.	4A/	.	.	.
!LO:TX:t=P:problem:kreska pseudotaktowa	!	!	!	!	!	!	!
8AA/J	.	.	.	.	.	.	.
4GG/	.	2.G/	-SV	4B-\	.	.	.
4AA/	.	.	.	4c\	.	8f\L	.
.	.	.	.	.	.	8e\J	.
4BB-/	.	.	.	1d\	-SV	4d\	.
!	!	!	!	!	!	!LO:TX:t=P:problem:kreska pseudotaktowa	!
4GG/	.	4B-\	.	.	.	4e\	.
=30-	=30-	=30-	=30-	=30-	=30-	=30-	=30-
2D/	.	2A\	JE-	.	.	4f#X\	-SV
.	.	.	.	.	.	4d\	.
!	!	!LO:TX:t=P:problem:kreska pseudotaktowa	!	!LO:TX:t=P:problem:kreska pseudotaktowa	!	!	!
2GG/	-su	2B-\	-SV	2d\	CHr(i-	1g	CHri-
!LO:TX:t=P:problem:kreska pseudotaktowa	!	!	!	!LO:TX:t=P:problem:kreska pseudotaktowa	!	!	!
1D	CHri-	1A	Chri-	1d	-st)e	.	.
!	!	!	!	!	!	!LO:TX:t=P:problem:kreska pseudotaktowa	!
!	!	!	!	!	!	!LO:TX:a:t=P:problem:# above	!
.	.	.	.	.	.	2f#X\	.
=31-	=31-	=31-	=31-	=31-	=31-	=31-	=31-
2GG,/	-ſte	2B-X,\	-ste	4d,\	.	2g\	-ſte
.	.	.	.	4.d\	D(o-	.	.
!	!	!	!	!	!	!LO:TX:t=P:problem:kreska pseudotaktowa	!
4.G\	Do-	4.B-\	Do-	.	.	2r	.
.	.	.	.	8d\	-mi)-	.	.
!	!	!	!	!LO:TX:t=P:problem:kreska pseudotaktowa	!	!	!
.	.	.	.	4G/	-ne	.	.
!	!	!LO:TX:t=P:problem:kreska pseudotaktowa	!	!	!	!	!
8G\	-mi-	8B-\	-mi-	.	.	.	.
*custos:D	*	*	*	*	*	*	*
!LO:LB:g=original	!	!	!	!	!	!	!
2D\	-ne	4F,/	-ne	4B-\	DE-	1r	.
*	*	*	*ij	*	*	*	*
.	.	4.f\	Do-	4B-\	-us	.	.
4F\	De-	.	.	8A\L	A-	.	.
.	.	8f\	-mi-	8G\	.	.	.
!LO:TX:t=P:problem:kreska pseudotaktowa	!	!LO:TX:t=P:problem:kreska pseudotaktowa	!	!	!	!	!
4F\	-(us)	4c\	-ne	8A\	.	.	.
*	*	*	*Xij	*	*	*	*
!	!	!	!	!LO:TX:t=P:problem:kreska pseudotaktowa	!	!	!
.	.	.	.	8B-\J	.	.	.
=32-	=32-	=32-	=32-	=32-	=32-	=32-	=32-
8E-X\L	A-	2e-X\	DE-	2c\	.	4r	.
8D\	.	.	.	.	.	.	.
8E-\	.	.	.	.	.	4.g\	Do-
8F\J	.	.	.	.	.	.	.
!	!	!LO:TX:t=P:problem:kreska pseudotaktowa	!	!LO:TX:t=P:problem:kreska pseudotaktowa	!	!	!
4.G\	.	2d\	-VS	2B-\	-gn(us)	.	.
.	.	.	.	.	.	8g\	-mi-
!	!	!	!	!	!	!LO:TX:t=P:problem:kreska pseudotaktowa	!
.	.	.	.	.	.	4d\	-ne
16F\LL	.	.	.	.	.	.	.
!LO:TX:t=P:problem:kreska pseudotaktowa	!	!	!	!	!	!	!
16E-\JJ	.	.	.	.	.	.	.
8D\L	.	1r	.	8d\L	DE-	4fny\	De-
8E-\	.	.	.	8c\	.	.	.
8F\	.	.	.	8A\	.	4f\	-(us)
8G\J	.	.	.	8B-\J	.	.	.
4A\	.	.	.	8c\L	.	4e\	A-
.	.	.	.	16d\L	.	.	.
.	.	.	.	16e\JJ	.	.	.
!LO:TX:t=P:problem:kreska pseudotaktowa	!	!	!	!LO:TX:t=P:problem:kreska pseudotaktowa	!	!LO:TX:t=P:problem:kreska pseudotaktowa	!
4F\	-gnus	.	.	4f\	.	4a\	-gnus
=33-	=33-	=33-	=33-	=33-	=33-	=33-	=33-
2G\	DE-	2r	.	8e\L	.	4.g\	DE-
.	.	.	.	8d\J	.	.	.
.	.	.	.	2d\	.	.	.
.	.	.	.	.	.	8f\L	.
2A\	.	4r	.	.	.	8e\	.
.	.	.	.	.	.	8d\J	.
!	!	!	!	!LO:TX:t=P:problem:kreska pseudotaktowa	!	!	!
!	!	!	!	!LO:TX:a:t=P:problem:# above	!	!LO:TX:t=P:problem:kreska pseudotaktowa	!
.	.	4.A/	Fi-	4c#X\	.	4e\	.
4D/	-I	.	.	2d\	-I	4f-X\	-I
.	.	8A/	-li-	.	.	.	.
4.D/	Fi-	4F,/	-us	.	.	4.f-\	Fi-
!	!	!LO:TX:t=P:problem:kreska pseudotaktowa	!	!	!	!	!
.	.	[2B-\	Pa-	4.d\	Fi-	.	.
8D/	-li-	.	.	.	.	8f-\	-li-
!	!	!	!	!	!	!LO:TX:t=P:problem:kreska pseudotaktowa	!
!LO:TX:t=P:problem:kreska pseudotaktowa	!	!	!	!	!	!	!
4BB-/	-(us)	.	.	.	.	4d\	-us
!	!	!	!	!LO:TX:t=P:problem:kreska pseudotaktowa	!	!	!
.	.	.	.	8d\	-li-	.	.
*	*	*custos:B	*	*	*	*custos:g	*
!	!	!LO:LB:g=original	!	!	!	!LO:LB:g=original	!
=34-	=34-	=34-	=34-	=34-	=34-	=34-	=34-
*	*ij	*	*	*	*	*	*
4.E-X\	Fi-	8B-]	.	2B-\	-us	4.g\	Fi-
.	.	8A\J	.	.	.	.	.
.	.	4.G/	.	.	.	.	.
8E-\	-li-	.	.	.	.	8fny\	.
!	!	!	!	!	!	!LO:TX:t=P:problem:kreska pseudotaktowa	!
2C/	-(us)	.	.	4.e-X\	Pa-	2e-X\	-li
*	*Xij	*	*	*	*	*	*
.	.	16A/LL	.	.	.	.	.
.	.	16B-/JJ	.	.	.	.	.
.	.	8c\L	.	.	.	.	.
!	!	!LO:TX:t=P:problem:kreska pseudotaktowa	!	!LO:TX:t=P:problem:kreska pseudotaktowa	!	!	!
.	.	8B-\J	.	8d\	.	.	.
*	*	*	*	*custos:c	*	*	*
!	!	!	!	!LO:LB:g=original	!	!	!
2F\	Pa-	8A/L	.	8cny\L	.	4.f\	-us
.	.	8G/	.	8B-\	.	.	.
.	.	8A/	.	8c\	.	.	.
.	.	8F/J	.	8d\J	.	8f\	.
!LO:TX:t=P:problem:kreska pseudotaktowa	!	!	!	!LO:TX:t=P:problem:kreska pseudotaktowa:między nutą a kropką	!	!LO:TX:t=P:problem:kreska pseudotaktowa	!
2E-X\	.	4c\	.	2.e-X\	.	2g\	Pa-
!	!	!LO:TX:t=P:problem:kreska pseudotaktowa	!	!	!	!	!
.	.	4B-\	.	.	.	.	.
=35-	=35-	=35-	=35-	=35-	=35-	=35-	=35-
1F	.	4A\	.	.	.	1f	-tris
.	.	2B-\	.	4d\	.	.	.
.	.	.	.	2c\	-tris	.	.
.	.	4A\	.	.	.	.	.
1BB-;	-tris	1B-;<l	-tris	1d;<	.	1f;<	.
!LO:PB:g=original	!	!	!	!	!	!	!
=36||-	=36||-	=36||-	=36||-	=36||-	=36||-	=36||-	=36||-
*M2\1	*	*M2\1	*	*M2\1	*	*M2\1	*
*met(C|)	*	*met(C|)	*	*met(C|)	*	*met(C|)	*
!	!	!	!	!LO:TX:t=P:problem:kreska pseudotaktowa	!	!LO:TX:t=P:problem:kreska pseudotaktowa	!
2r	.	2B-\	Qui	00r	.	0r	.
!LO:TX:t=P:problem:kreska pseudotaktowa	!	!	!	!	!	!	!
2F\	Qui	4A/	tol-	.	.	.	.
.	.	8G/	-lis	.	.	.	.
!	!	!LO:TX:t=P:problem:kreska pseudotaktowa	!	!	!	!	!
.	.	8F/	pec-	.	.	.	.
4E-X\	tol-	4G/	-ca-	.	.	.	.
8D/	-lis	4A/	.	.	.	.	.
8C/	p(ec)-	.	.	.	.	.	.
!	!	!LO:TX:t=P:problem:kreska pseudotaktowa	!	!	!	!	!
4D/	-ca-	2B-\	-ta	.	.	.	.
!LO:TX:t=P:problem:kreska pseudotaktowa	!	!	!	!	!	!	!
4E-\	-ta	.	.	.	.	.	.
=37-	=37-	=37-	=37-	=37-	=37-	=37-	=37-
2F\	m(un)-	4A/	m(un)-	.	.	2f\	Qui
.	.	4F/	-di	.	.	.	.
4C/	-di	4G/	pec-	.	.	4e-X\	tol-
*	*ij	*	*	*	*	*	*
!LO:TX:t=P:problem:kreska pseudotaktowa	!	!LO:TX:t=P:problem:kreska pseudotaktowa	!	!	!	!	!
4C/	Qui	4A/	-ca-	.	.	8d\	-lis
!	!	!	!	!	!	!LO:TX:t=P:problem:kreska pseudotaktowa	!
.	.	.	.	.	.	8c\	pec-
4BB-/	tol-	2B-\	-ta	.	.	4d\	-ca-
8AA/	-lis	.	.	.	.	4e-\	-ta
8GG/	p(ec)-	.	.	.	.	.	.
!	!	!	!	!	!	!LO:TX:t=P:problem:kreska pseudotaktowa:między nutą a kropką	!
4AA/	-ca-	2A/	m(un)-	.	.	2.f\	m(un)-
!LO:TX:t=P:problem:kreska pseudotaktowa	!	!	!	!	!	!	!
4BB-/	-ta	.	.	.	.	.	.
=38-	=38-	=38-	=38-	=38-	=38-	=38-	=38-
!	!	!LO:TX:t=P:problem:kreska pseudotaktowa	!	!	!	!	!
2C/	m(un)-	1G	-di	2c\	Qui	.	.
.	.	.	.	.	.	4e-X\	.
2GG/	-di	.	.	4B-\	tol-	4d\	-di
*	*Xij	*	*	*	*	*	*ij
!	!	!	!	!	!	!LO:TX:t=P:problem:kreska pseudotaktowa	!
.	.	.	.	8A/	-lis	4g\	Qui
!	!	!	!	!LO:TX:t=P:problem:kreska pseudotaktowa	!	!	!
.	.	.	.	8G/	p(ec)-	.	.
2D\	Qui	1r	.	4A\	-ca-	4f\	tol-
.	.	.	.	4B-\	-ta	8e-\	-lis
.	.	.	.	.	.	8d\	pec-
!	!	!	!	!LO:TX:t=P:problem:kreska pseudotaktowa	!	!	!
4C/	tol-	.	.	2c\	mun-	4e-\	-ca-
!	!	!	!	!	!	!LO:TX:t=P:problem:kreska pseudotaktowa	!
8BB-/	-lis	.	.	.	.	4f\	-ta
!LO:TX:t=P:problem:kreska pseudotaktowa	!	!	!	!	!	!	!
8AA/	pec-	.	.	.	.	.	.
=39-	=39-	=39-	=39-	=39-	=39-	=39-	=39-
4.BB-/	-ca-	2B-\	Qui	2.d\	-di	2g\	m(un)-
8C/L	.	.	.	.	.	.	.
8D/	.	4A/	tol-	.	.	4.f\	.
8Eny/J	.	.	.	.	.	.	.
!	!	!	!	!LO:TX:t=P:problem:kreska pseudotaktowa	!	!	!
2F\	.	8G/	-lis	4c\	p(ec)-	.	.
!	!	!LO:TX:t=P:problem:kreska pseudotaktowa	!	!	!	!LO:TX:t=P:problem:kreska pseudotaktowa	!
.	.	8F/	pec-	.	.	8a\	-di
*	*	*custos:G	*	*	*	*	*Xij
!	!	!LO:LB:g=original	!	!	!	!	!
.	.	4.G/	-ca-	4B-\	-ca-	4.g\	pe-
4E-X\	ta	.	.	4c\	-ta	.	.
.	.	8A/	.	.	.	8g\	-ca-
!	!	!	!	!LO:TX:t=P:problem:kreska pseudotaktowa	!	!	!
4D/	.	4.B-/	.	2d\	mun-	8f#X\L	-ta
.	.	.	.	.	.	8d\J	.
!LO:TX:t=P:problem:kreska pseudotaktowa	!	!	!	!	!	!LO:TX:t=P:problem:przekreślona synkopowana wartość	!
4BB-/	.	.	.	.	.	2g\	mun-
!	!	!LO:TX:t=P:problem:kreska pseudotaktowa	!	!	!	!	!
.	.	8B-/	-ta	.	.	.	.
=40-	=40-	=40-	=40-	=40-	=40-	=40-	=40-
(4C/	mun-	2A/	mun-	4e-X\	.	.	.
!	!	!	!	!	!	!LO:TX:a:t=P:problem:# above	!
4D/)	.	.	.	4d\	.	4f#X\	.
*	*	*	*	*	*	*custos:g	*
!	!	!	!	!	!	!LO:LB:g=original	!
4GG/	-di	4B-\	-di	4d\	-di	4g\	-di
!LO:TX:t=P:problem:przekreślona synkopowana wartość	!	!	!	!LO:TX:t=P:problem:przekreślona synkopowana wartość	!	!LO:TX:t=P:problem:kreska pseudotaktowa:między nutą a kropką	!
2GG/	mi-	2B-\	mi-	2d\	mi-	4.g\	mi-
.	.	.	.	.	.	8g\	-ſe-
4AA/	-ſe-	4A/	-ſe-	4c\	-ſe-	2f#\	-re-
*custos:BB	*	*	*	*	*	*	*
!LO:LB:g=original	!	!	!	!	!	!	!
4BB-/	-re-	4.G/	-re-	4d\	-re-	.	.
!LO:TX:t=P:problem:kreska pseudotaktowa	!	!	!	!LO:TX:t=P:problem:kreska pseudotaktowa	!	!LO:TX:t=P:problem:kreska pseudotaktowa	!
4C/	-re	.	.	4c\	-re	4e-X\	-re
!	!	!LO:TX:t=P:problem:kreska pseudotaktowa	!	!	!	!	!
.	.	8G/	-re	.	.	.	.
=41-	=41-	=41-	=41-	=41-	=41-	=41-	=41-
!	!	!	!	!LO:N:acc=#	!	!	!
1GG	no-	1G	no-	4Bn\	no-	4d\	no-
.	.	.	.	4e-X\	.	2c/	.
!	!	!	!	!LO:TX:t=P:problem:kreska pseudotaktowa	!	!	!
.	.	.	.	2d\	.	.	.
!	!	!	!	!	!	!LO:TX:t=P:problem:kreska pseudotaktowa	!
!	!	!	!	!	!	!LO:TX:b:t=P:problem:# below	!
!	!	!	!	!	!	!LO:N:acc=#	!
.	.	.	.	.	.	4Bn/	.
4C/	.	2G/	-bis	2c\	-bis	4c/	-bis
4C/	-bis	.	.	.	.	4eny\	Qui
*	*	*	*	*custos:c	*	*	*
!LO:TX:t=P:problem:kreska pseudotaktowa	!	!	!	!LO:LB:g=original	!	!LO:TX:t=P:problem:kreska pseudotaktowa	!
2F\	Qui	4r	.	4r	.	2a\	tol-
!	!	!LO:TX:t=P:problem:kreska pseudotaktowa	!	!LO:TX:t=P:problem:kreska pseudotaktowa	!	!	!
.	.	4A/	Qui	4c\	Qui	.	.
=42-	=42-	=42-	=42-	=42-	=42-	=42-	=42-
4D/	tol-	2d\	tol-	2f\	tol-	4fny\	-lis
4D/	-lis	.	.	.	.	4f\	pec-
!	!	!	!	!	!	!LO:TX:t=P:problem:kreska pseudotaktowa:między nutą a kropką	!
4.G\	p(ec)-	4.B-\	-lis	4d\	-lis	2.g\	-ca-
!	!	!	!	!LO:TX:t=P:problem:kreska pseudotaktowa	!	!	!
.	.	.	.	4B-y\	pec-	.	.
!LO:TX:t=P:problem:kreska pseudotaktowa	!	!LO:TX:t=P:problem:kreska pseudotaktowa	!	!	!	!	!
8F\	.	8A/	p(ec-	.	.	.	.
4E-X\	-ca-	8G/	-ca)-	8B-\L	-ca-	.	.
.	.	8A/	-ta	8c\	.	.	.
4D/	-ta	2B-\	mun-	8d\J	.	4f\	-ta
.	.	.	.	8d\	ta	.	.
!	!	!	!	!LO:TX:t=P:problem:kreska pseudotaktowa	!	!	!
(4E-\	mun-	.	.	2c\	mun-	(4g\	mun-
!	!	!LO:TX:t=P:problem:kreska pseudotaktowa	!	!	!	!	!
4F\)	.	4A/	.	.	.	4f\)	.
=43-	=43-	=43-	=43-	=43-	=43-	=43-	=43-
!	!	!LO:TX:t=P:problem:kreska pseudotaktowa	!	!	!	!LO:TX:t=P:problem:kreska pseudotaktowa	!
1BB-	-di	1B-	-di	1d	-di	1f	-di
1ryy	.	1ryy	.	1ryy	.	1ryy	.
=44-	=44-	=44-	=44-	=44-	=44-	=44-	=44-
*M3/1	*	*M3/1	*	*M3/1	*	*M3/1	*
1.BB-	Sus-	1.B-	Sus-	1.d	Sus-	1.f	Sus-
2BB-/	-ci-	2B-\	-ci-	2d\	-ci-	2f\	-ci-
!LO:TX:t=P:problem:kreska pseudotaktowa	!	!LO:TX:t=P:problem:kreska pseudotaktowa	!	!LO:TX:t=P:problem:kreska pseudotaktowa	!	!LO:TX:t=P:problem:kreska pseudotaktowa	!
1BB-	-pe	1B-	-pe	1d	-pe	1f	-pe
=45-	=45-	=45-	=45-	=45-	=45-	=45-	=45-
0F	de-	0A	de-	0c	de-	0f	de-
!	!	!LO:TX:t=P:problem:kreska pseudotaktowa	!	!LO:TX:t=P:problem:kreska pseudotaktowa	!	!LO:TX:t=P:problem:kreska pseudotaktowa	!
1Eny	-pre-	1G	-pre-	1c	-pre-	1g	-pre-
=46-	=46-	=46-	=46-	=46-	=46-	=46-	=46-
1.F	-ca-	1.F	-ca-	1.c	-ca-	1.f	-ca-
2F\	.	2F/	-ti-	2A\	-ti-	2c/	-(ti-
!	!	!	!	!LO:TX:t=P:problem:kreska pseudotaktowa	!	!	!
!LO:TX:t=P:problem:kreska pseudotaktowa	!	!LO:TX:t=P:problem:kreska pseudotaktowa	!	!LO:N:acc=#	!	!LO:TX:t=P:problem:kreska pseudotaktowa	!
1D	-o-	1F	-o-	1Bn	-o-	1d	-o-
=47-	=47-	=47-	=47-	=47-	=47-	=47-	=47-
*	*	*col	*	*	*	*	*
1C	-nem	1G	-nem	1c	-nem	1e-X	-nem)
!	!	!LO:TX:t=P:problem:kreska pseudotaktowa	!	!	!	!	!
*	*	*	*	*lig	*	*col	*
0GG	no-	0G	no-	1c	no-	0d	no-
!	!	!	!	!LO:N:acc=#	!	!	!
*	*	*Xcol	*	*	*	*	*
!	!	!	!	!LO:TX:b:t=P:problem:# below	!	!	!
.	.	.	.	1Bn	.	.	.
*	*	*custos:G	*	*Xlig	*	*Xcol	*
!	!	!LO:LB:g=original	!	!	!	!	!
=48-	=48-	=48-	=48-	=48-	=48-	=48-	=48-
*M2/1	*	*M2/1	*	*M2/1	*	*M2/1	*
*met(C|)	*	*met(C|)	*	*met(C|)	*	*met(C|)	*
!	!	!	!	!LO:TX:t=P:problem:kreska pseudotaktowa	!	!LO:N:acc=#	!
2C;,/	-str(am)	4G,/	-stram	1c	-stram	2en\	-stram
.	.	4G/	qui	.	.	.	.
!LO:TX:t=P:problem:kreska pseudotaktowa	!	!	!	!	!	!LO:TX:t=P:problem:kreska pseudotaktowa	!
2C/	Qui	4A/	se-	.	.	2e\	qui
.	.	8A/	-des	.	.	.	.
!	!	!LO:TX:t=P:problem:kreska pseudotaktowa	!	!	!	!	!
.	.	8G/	ad	.	.	.	.
4D/	se-	4.F/	dex-	1r	.	4f\	se-
8D/	-des	.	.	.	.	8f\	-des
8C/	ad	8F/	-te-	.	.	8e\	ad
*	*	*	*	*	*	*custos:d	*
!	!	!	!	!	!	!LO:LB:g=original	!
4BB-/	dex-	4F/	-r(am)	.	.	4d\	dex-
8BB-/	-te-	2F/	P(a-	.	.	8d\	-te-
!	!	!	!	!	!	!LO:TX:t=P:problem:kreska pseudotaktowa	!
8AA/	-r(am)	.	.	.	.	8c/	-r(am)
*custos:GG	*	*	*	*	*	*	*
!LO:LB:g=original	!	!	!	!	!	!	!
=49-	=49-	=49-	=49-	=49-	=49-	=49-	=49-
2GG/	Pa-	.	.	2r	.	2B-y/	P(at)-
.	.	4E/	.	.	.	.	.
!LO:TX:t=P:problem:kreska pseudotaktowa	!	!LO:TX:t=P:problem:kreska pseudotaktowa	!	!LO:TX:t=P:problem:kreska pseudotaktowa:między nutą a kropką	!	!LO:TX:t=P:problem:kreska pseudotaktowa	!
2FF/	-tris	2F/	-tris)	2.c\	mi-	2A/	-ris
2F\	mi-	2A/	mi-	.	.	2r	.
.	.	.	.	4A\	-ſe-	.	.
!	!	!	!	!	!	!LO:TX:t=P:problem:kreska pseudotaktowa	!
2D/	-ſe-	2F/	-ſe-	8d\L	-re-	2f\	.
.	.	.	.	8eny\	.	.	.
.	.	.	.	8d\	.	.	.
!	!	!	!	!LO:TX:t=P:problem:kreska pseudotaktowa	!	!	!
.	.	.	.	8c\J	.	.	.
=50-	=50-	=50-	=50-	=50-	=50-	=50-	=50-
4.G\	-re-	2.B-\	-re-	8B-y\L	.	4d\	mi-
.	.	.	.	8c\	.	.	.
.	.	.	.	8d\	.	2g\	-se-
8F\	.	.	.	8e\J	.	.	.
!	!	!	!	!LO:TX:t=P:problem:kreska pseudotaktowa:między nutą a kropką	!	!	!
4E\	.	.	.	2.c\	.	.	.
!LO:TX:t=P:problem:kreska pseudotaktowa	!	!LO:TX:t=P:problem:kreska pseudotaktowa	!	!	!	!LO:TX:t=P:problem:kreska pseudotaktowa	!
4F\	.	4A/	-re	.	.	4f\	-re-
4C/	-re	1G	no-	.	.	4e\	.
4BB-/	.	.	.	4d\	re	2f\	-re
2C/	no-	.	.	2c\	no-	.	.
.	.	.	.	.	.	4e\	no-
=51-	=51-	=51-	=51-	=51-	=51-	=51-	=51-
!	!	!	!	!LO:TX:t=P:problem:kreska pseudotaktowa	!	!	!
1FF	-bis	1A	-bis	1c	-bis	1f	-bis
*	*	*	*	*custos:d	*	*	*
!	!	!	!	!LO:PB:g=original	!	!	!
=52-	=52-	=52-	=52-	=52-	=52-	=52-	=52-
*M3/1	*	*M3/1	*	*M3/1	*	*M3/1	*
1.D	Quo-	1.A	Quo-	1.d	Quo-	1.f#X	Quo-
2D/	-ni-	2A/	-ni-	2d\	-ni-	2f#\	-ni-
!LO:TX:t=P:problem:kreska pseudotaktowa	!	!LO:TX:t=P:problem:kreska pseudotaktowa	!	!LO:TX:t=P:problem:kreska pseudotaktowa	!	!LO:TX:t=P:problem:kreska pseudotaktowa	!
1D	-(am)	1A	-am	1d	-am	1f#	-(am)
=53-	=53-	=53-	=53-	=53-	=53-	=53-	=53-
1E-X	tu	1G	tu	1B-	tu	1g	tu
1C	so-	1c	so-	1e-X	so-	1g	so-
!	!	!	!	!	!	!LO:TX:t=P:problem:kreska pseudotaktowa	!
!LO:TX:t=P:problem:kreska pseudotaktowa	!	!LO:TX:t=P:problem:kreska pseudotaktowa	!	!LO:TX:t=P:problem:kreska pseudotaktowa	!	!LO:TX:a:t=P:problem:# above	!
1D	-l(us)	1A	-l(us)	1d	-l(us)	1f#X	-(lus)
=54-	=54-	=54-	=54-	=54-	=54-	=54-	=54-
0GG	San-	0B-	San-	0d	San-	0g	San-
!LO:TX:t=P:problem:kreska pseudotaktowa	!	!LO:TX:t=P:problem:kreska pseudotaktowa	!	!LO:TX:t=P:problem:kreska pseudotaktowa	!	!LO:TX:t=P:problem:kreska pseudotaktowa	!
1GG	-ct(us)	1B-	-ct(us)	1d	-ct(us)	1g	-ct(us)
=55-	=55-	=55-	=55-	=55-	=55-	=55-	=55-
1G	tu	1B-	tu	1d	tu	1g	tu
1E-X	so-	1B-	so-	1e-X	So-	1g	so-
!	!	!LO:TX:t=P:problem:kreska pseudotaktowa	!	!LO:TX:t=P:problem:kreska pseudotaktowa	!	!LO:TX:t=P:problem:kreska pseudotaktowa	!
1F	-l(us)	1A	-l(us)	1c	-l(us)	1fn	-lus
=56-	=56-	=56-	=56-	=56-	=56-	=56-	=56-
1.BB-	D(o-	1.B-	Do-	1.d	D(o-	1.f	D(o-
2BB-/	-mi-	2B-\	-mi-	2d\	-mi-	2f\	-mi-
!LO:TX:t=P:problem:kreska pseudotaktowa	!	!LO:TX:t=P:problem:kreska pseudotaktowa	!	!LO:TX:t=P:problem:kreska pseudotaktowa	!	!LO:TX:t=P:problem:kreska pseudotaktowa	!
1BB-	-nus)	1B-	-n(us)	1d	-nus)	1f	-nus)
*	*	*custos:B	*	*	*	*	*
!	!	!LO:PB:g=original	!	!	!	!	!
=57-	=57-	=57-	=57-	=57-	=57-	=57-	=57-
1r	.	1r	.	1r	.	1r	.
1r	.	1r	.	1r	.	1r	.
!LO:TX:t=P:problem:kreska pseudotaktowa	!	!LO:TX:t=P:problem:kreska pseudotaktowa	!	!LO:TX:t=P:problem:kreska pseudotaktowa	!	!LO:TX:t=P:problem:kreska pseudotaktowa	!
1BB-	tu	1B-	tu	1d	Tu	1f	tu
=58-	=58-	=58-	=58-	=58-	=58-	=58-	=58-
1D	so-	1B-	so-	1d	So-	1f	so-
1D	-l(us)	1.B-	-lus	1d	-l(us)	1f	-(lus)
!LO:SIC:v:t=custos F	!	!	!	!LO:TX:t=P:problem:kreska pseudotaktowa	!	!LO:TX:t=P:problem:kreska pseudotaktowa	!
1Eny	al-	.	.	1c	al-	1g	al-
!	!	!LO:TX:t=P:problem:kreska pseudotaktowa	!	!	!	!	!
.	.	2B-\	al-	.	.	.	.
*	*	*	*	*	*	*custos:f	*
!LO:LB:g=original	!	!	!	!	!	!LO:LB:g=original	!
=59-	=59-	=59-	=59-	=59-	=59-	=59-	=59-
1.F	-tiſ-	1.A	-tiſ-	1.c	-tiſ-	1.f	-tiſ-
2F\	-si-	2A/	-si-	2c\	-si-	2f\	-si-
!LO:TX:t=P:problem:kreska pseudotaktowa	!	!LO:TX:t=P:problem:kreska pseudotaktowa	!	!LO:TX:t=P:problem:kreska pseudotaktowa	!	!LO:TX:t=P:problem:kreska pseudotaktowa	!
1F	-m(us)	1A	-mus	1c	-mus	1f	-m(us)
=60-	=60-	=60-	=60-	=60-	=60-	=60-	=60-
1.F	JE-	1r	.	2c\	JE-	1.a	JE-
.	.	.	.	2B-\	.	.	.
.	.	1.F	JE-	1.A	.	.	.
2E\	.	.	.	.	.	2g\	.
!	!	!	!	!	!	!LO:TX:t=P:problem:kreska pseudotaktowa:między nutą a kropką	!
1.D	.	.	.	.	.	1.f	.
!	!	!LO:TX:t=P:problem:kreska pseudotaktowa	!	!	!	!	!
.	.	2G/	.	4B-\	.	.	.
!	!	!	!	!LO:TX:t=P:problem:kreska pseudotaktowa	!	!	!
.	.	.	.	4c\	.	.	.
=61-	=61-	=61-	=61-	=61-	=61-	=61-	=61-
.	.	2A\	.	0d	.	.	.
2C/	.	4B-\	.	.	.	2e\	.
.	.	4c\	.	.	.	.	.
2BB-/	.	2d\	.	.	.	2d\	.
2AA/	.	2c\	.	.	.	4e\	.
.	.	.	.	.	.	4f\	.
!LO:TX:t=P:problem:kreska pseudotaktowa	!	!LO:TX:t=P:problem:kreska pseudotaktowa	!	!	!	!LO:TX:t=P:problem:kreska pseudotaktowa	!
1GG	.	1B-	.	1d	.	1g	.
=62-	=62-	=62-	=62-	=62-	=62-	=62-	=62-
1AA	-su	1A	-su	(1c	-SV	1f	-SU
*lig	*	*	*	*	*	*lig	*
1BB-	CHri-	0G	CHri-	1d)	.	1f	CHri-
1C	.	.	.	1c	CHri-	1e	.
*Xlig	*	*	*	*custos:c	*	*Xlig	*
!	!	!	!	!LO:LB:g=original	!	!	!
=63-	=63-	=63-	=63-	=63-	=63-	=63-	=63-
*M2/1	*	*M2/1	*	*M2/1	*	*M2/1	*
*met(C|)	*	*met(C|)	*	*met(C|)	*	*met(C|)	*
!LO:TX:t=P:problem:kreska pseudotaktowa	!	!	!	!LO:TX:t=P:problem:kreska pseudotaktowa	!	!	!
1FF	-(ste)	2A/	-ste	1c	-ste	2f,\	-ste
!	!	!LO:TX:t=P:problem:kreska pseudotaktowa	!	!	!	!LO:TX:t=P:problem:kreska pseudotaktowa	!
.	.	2F/	Cum	.	.	2f\	Cum
!LO:TX:t=P:problem:kreska pseudotaktowa	!	!	!	!	!	!	!
1r	.	2G/	San-	1r	.	2e-X\	San-
!	!	!LO:TX:t=P:problem:kreska pseudotaktowa	!	!	!	!LO:TX:t=P:problem:kreska pseudotaktowa	!
.	.	2A/	-cto	.	.	2c\	-cto
=64-	=64-	=64-	=64-	=64-	=64-	=64-	=64-
1BB-	Cum	4B-\	Spi-	2r	.	4d\	Spi-
.	.	4c\	.	.	.	4eny\	.
!	!	!	!	!LO:TX:t=P:problem:kreska pseudotaktowa	!	!	!
.	.	4d\	.	2B-\	cum	4f\	.
.	.	4e-X\	-ri-	.	.	4g\	.
2C/	S(an-	2c\	-tu	2A/	S(an-	2e-X\	.
!	!	!LO:TX:t=P:problem:kreska pseudotaktowa	!	!LO:TX:b:t=P:problem:# below	!	!	!
2D/	-cto)	2r	.	2F#X/	-cto)	1d\	.
=65-	=65-	=65-	=65-	=65-	=65-	=65-	=65-
2.E-X\	Spi-	2r	.	1.G	Spi-	.	.
!	!	!LO:TX:t=P:problem:kreska pseudotaktowa	!	!	!	!LO:TX:t=P:problem:kreska pseudotaktowa	!
.	.	2G/	in	.	.	2c/	.
4E-\	-ri-	.	.	.	.	.	.
*	*	*custos:d	*	*	*	*	*
!	!	!LO:LB:g=original	!	!	!	!	!
2D/	-tu	2d\	glo-	.	.	2B-/	.
!	!	!	!	!LO:TX:t=P:problem:kreska pseudotaktowa	!	!	!
!LO:TX:t=P:problem:kreska pseudotaktowa	!	!	!	!LO:TX:b:t=P:problem:# below	!	!	!
2D/	in	4d\	-ri-	2F#X/	-ri-	2A/	-ri-
!	!	!LO:TX:t=P:problem:kreska pseudotaktowa	!	!	!	!	!
.	.	4d\	-a	.	.	.	.
=66-	=66-	=66-	=66-	=66-	=66-	=66-	=66-
!	!	!	!	!LO:TX:t=P:problem:kreska pseudotaktowa	!	!LO:TX:t=P:problem:kreska pseudotaktowa	!
2G\	glo-	2B-\	DE-	1G	-tu	1G	-tu
4G\	-ri-	2G/	-I	.	.	.	.
4G\	-a	.	.	.	.	.	.
2F\	DE-	(2A/	Pa-	1r	.	2r	.
!	!	!	!	!	!	!LO:TX:t=P:problem:kreska pseudotaktowa	!
2D/	-I	2B-\)	.	.	.	2d\	in
=67-	=67-	=67-	=67-	=67-	=67-	=67-	=67-
!	!	!LO:TX:t=P:problem:kreska pseudotaktowa	!	!	!	!	!
1E-X	P(at)-	1B-	-tris	2r	.	2g\	glo-
!	!	!	!	!LO:TX:t=P:problem:kreska pseudotaktowa	!	!	!
.	.	.	.	2G/	in	4g\	-ri-
!	!	!	!	!	!	!LO:TX:t=P:problem:kreska pseudotaktowa	!
.	.	.	.	.	.	4g\	-a
2BB-/	-ris	0r	.	2d\	glo-	2f\	DE-
!LO:TX:t=P:problem:kreska pseudotaktowa	!	!	!	!	!	!LO:TX:t=P:problem:kreska pseudotaktowa	!
2B-\	Cum	.	.	4d\	-ri-	2d\	-I
.	.	.	.	4d\	-a	.	.
*	*	*	*	*	*	*custos:f	*
!	!	!	!	!	!	!LO:PB:g=original	!
=68-	=68-	=68-	=68-	=68-	=68-	=68-	=68-
2A\	S(an-	.	.	(2c\	DE-	1.f	Pa-
!	!	!	!	!LO:TX:t=P:problem:kreska pseudotaktowa	!	!	!
2F\	-cto)	.	.	2A\)	.	.	.
2.G\	S(pi-	2r	.	2B-,\	-I	.	.
!	!	!LO:TX:t=P:problem:kreska pseudotaktowa	!	!	!	!	!
.	.	2G/	Cum	2B-\	cum	2eny\	.
4G\	-ri)-	.	.	.	.	.	.
=69-	=69-	=69-	=69-	=69-	=69-	=69-	=69-
!	!	!	!	!	!	!LO:TX:t=P:problem:kreska pseudotaktowa	!
2F\	-tu	2A/	San-	2c\	S(an)-	1f	-tris
!LO:TX:t=P:problem:kreska pseudotaktowa	!	!	!	!LO:TX:t=P:problem:kreska pseudotaktowa	!	!	!
2D/	in	2B-\	-cto	2d\	-cto	.	.
*custos:C	*	*	*	*	*	*	*
!LO:LB:g=original	!	!	!	!	!	!	!
2.C/	gl(o-	2.c\	Spi-	2.e-X\	Spi-	1r	.
!	!	!	!	!LO:TX:t=P:problem:kreska pseudotaktowa	!	!	!
4C/	-ri)-	4c\	-ri-	4e-\	-ri-	.	.
=70-	=70-	=70-	=70-	=70-	=70-	=70-	=70-
!	!	!LO:TX:t=P:problem:kreska pseudotaktowa	!	!	!	!	!
2G\	-a	1B-	-tu	2d\	-tu	2r	.
!LO:TX:t=P:problem:kreska pseudotaktowa	!	!	!	!LO:TX:t=P:problem:kreska pseudotaktowa	!	!LO:TX:t=P:problem:kreska pseudotaktowa	!
2GG/	c(um)	.	.	2B-\	San-	2g\	Cum
2AA/	S(an-	0r	.	2c\	-cto	2f\	S(an-
2BB-/	-cto)	.	.	2.d\	Spi-	2d\	-cto)
=71-	=71-	=71-	=71-	=71-	=71-	=71-	=71-
2.C/	S(pi-	.	.	.	.	2.e-X\	Spi-
.	.	.	.	8c\L	.	.	.
.	.	.	.	8B-\J	.	.	.
.	.	.	.	4.c\	.	.	.
!LO:TX:t=P:problem:kreska pseudotaktowa	!	!	!	!	!	!LO:TX:t=P:problem:kreska pseudotaktowa	!
4C/	-ri)-	.	.	.	.	4e-\	-(ri-
!	!	!	!	!LO:TX:t=P:problem:kreska pseudotaktowa	!	!	!
.	.	.	.	8c\	-ri-	.	.
2GG/	-tu	2r	.	2B-\	-tu	1.d	-tu)
*	*	*	*ij	*	*	*	*
!	!	!LO:TX:t=P:problem:kreska pseudotaktowa	!	!	!	!	!
2GG/	in	2G/	Cum	2B-\	in	.	.
=72-	=72-	=72-	=72-	=72-	=72-	=72-	=72-
2D/	glo-	2F/	San-	2A/	glo-	.	.
*	*	*	*	*	*	*	*ij
!	!	!	!	!LO:TX:t=P:problem:kreska pseudotaktowa	!	!LO:TX:t=P:problem:kreska pseudotaktowa	!
4D/	-ri-	2D/	-cto	2Fny/	.	2f\	Cum
*	*	*	*Xij	*	*	*	*
!LO:TX:t=P:problem:kreska pseudotaktowa	!	!	!	!	!	!	!
4D/	-a	.	.	.	.	.	.
*	*	*	*	*custos:G	*	*	*
!	!	!	!	!LO:LB:g=original	!	!	!
2C/	DE-	2E/	Spi-	2G/	.	2eny\	S(an-
2AA/	-I	2.F/	.	4.A/	.	2c/	-cto)
!	!	!	!	!LO:TX:t=P:problem:kreska pseudotaktowa	!	!	!
.	.	.	.	8A/	-ri-	.	.
=73-	=73-	=73-	=73-	=73-	=73-	=73-	=73-
!LO:TX:t=P:problem:kreska pseudotaktowa	!	!	!	!	!	!	!
1BB-	Pa-	.	.	2D/	-a	2.B-/	Spi-
.	.	4E/	.	.	.	.	.
!	!	!	!	!LO:TX:t=P:problem:kreska pseudotaktowa	!	!	!
.	.	4F/	.	2d\	in	.	.
!	!	!LO:TX:t=P:problem:kreska pseudotaktowa	!	!	!	!LO:TX:t=P:problem:kreska pseudotaktowa	!
.	.	4D/	.	.	.	4B-/	-(ri-
2FF/	-tris	2.A/	.	4c\	glo-	2c/	-tu)
*	*	*	*	*	*	*	*Xij
.	.	.	.	4B-\	.	.	.
!	!	!	!	!	!	!LO:TX:t=P:problem:kreska pseudotaktowa	!
2FF/	in	.	.	4.A\	.	2f\	in
.	.	4A/	-ri-	.	.	.	.
!	!	!	!	!LO:TX:t=P:problem:kreska pseudotaktowa	!	!	!
.	.	.	.	8B-\	.	.	.
=74-	=74-	=74-	=74-	=74-	=74-	=74-	=74-
2C/	gl(o-	2G/	-tu	2.c\	.	2e\	glo-
!	!	!LO:TX:t=P:problem:kreska pseudotaktowa	!	!	!	!	!
4C/	-ri-	2G/	in	.	.	4e\	-ri-
!LO:TX:t=P:problem:kreska pseudotaktowa	!	!	!	!	!	!LO:TX:t=P:problem:kreska pseudotaktowa	!
4C/	-a)	.	.	4c\	-ri-	4e\	-a
!	!	!	!	!LO:TX:t=P:problem:kreska pseudotaktowa	!	!	!
2BB-/	DE-	2.B-\	glo-	1d	-a	1g	DE-
2GG/	-I	.	.	.	.	.	.
.	.	4B-\	-ri-	.	.	.	.
=75-	=75-	=75-	=75-	=75-	=75-	=75-	=75-
!	!	!LO:TX:t=P:problem:kreska pseudotaktowa	!	!	!	!	!
(2.D/	Pa-	1A	-a	1.d	DE-	2f\	-I
.	.	.	.	.	.	1f	DE-
4C/)	.	.	.	.	.	.	.
*	*	*custos:A	*	*	*	*	*
!	!	!LO:LB:g=original	!	!	!	!	!
2BB-/	.	1G	DE-	.	.	.	.
!	!	!	!	!	!	!LO:TX:t=P:problem:kreska pseudotaktowa	!
2C/	.	.	.	2c\	-I	2e-X\	-I
=76-	=76-	=76-	=76-	=76-	=76-	=76-	=76-
!LO:TX:t=P:problem:kreska pseudotaktowa	!	!LO:TX:t=P:problem:kreska pseudotaktowa	!	!LO:N:acc=#	!	!	!
0.GG	-tris	1G	-I	2Bn\	Pa-	2d\	Pa-
!	!	!	!	!LO:TX:t=P:problem:kreska pseudotaktowa	!	!LO:TX:t=P:problem:kreska pseudotaktowa	!
.	.	.	.	2e-X\	.	2c/	.
!	!	!	!	!	!	!LO:N:acc=#	!
.	.	0G	Pa-	2d\	-tris	2Bn/	-tris
!	!	!	!	!	!	!LO:TX:t=P:problem:kreska pseudotaktowa	!
.	.	.	.	1c\	A-	2e-X\	A-
*	*	*	*	*	*	*custos:d	*
!	!	!	!	!	!	!LO:LB:g=original	!
=77-	=77-	=77-	=77-	=77-	=77-	=77-	=77-
.	A-	.	.	.	.	1d	.
!	!	!	!	!LO:TX:t=P:problem:kreska pseudotaktowa	!	!	!
!	!	!	!	!LO:TX:a:t=P:problem:# above	!	!	!
!	!	!	!	!LO:N:acc=#	!	!	!
.	.	.	.	2Bn\	.	.	.
!	!	!	!	!	!	!LO:TX:t=P:problem:kreska pseudotaktowa	!
!	!	!LO:TX:t=P:problem:kreska pseudotaktowa	!	!	!	!LO:N:acc=#	!
1C	.	1G	-tris	2c\	-men	1en	-men
.	.	.	.	1c\	A-	.	.
=78-	=78-	=78-	=78-	=78-	=78-	=78-	=78-
1.F	.	0r	.	.	.	1.a	.
!	!	!	!	!LO:TX:t=P:problem:kreska pseudotaktowa	!	!	!
.	.	.	.	2B-y\	.	.	.
.	.	.	.	1.A	.	.	.
!	!	!	!	!	!	!LO:TX:t=P:problem:kreska pseudotaktowa	!
2Eny\	.	.	.	.	.	2g\	.
=79-	=79-	=79-	=79-	=79-	=79-	=79-	=79-
1.D	.	2f\	A-	.	.	1.f	A-
!	!	!LO:TX:t=P:problem:kreska pseudotaktowa	!	!	!	!	!
.	.	2e-X\	.	2G/	.	.	.
.	.	1.d	.	1F	.	.	.
!	!	!	!	!	!	!LO:TX:t=P:problem:kreska pseudotaktowa	!
2C/	.	.	.	.	.	2e-X\	.
=80-	=80-	=80-	=80-	=80-	=80-	=80-	=80-
1.BB-	.	.	.	2f\	.	1.d	.
!	!	!	!	!LO:TX:t=P:problem:kreska pseudotaktowa	!	!	!
.	.	2c\	.	2e-X\	.	.	.
.	.	2B-\	.	2d\	.	.	.
!	!	!LO:TX:t=P:problem:kreska pseudotaktowa	!	!LO:TX:t=P:problem:kreska pseudotaktowa	!	!LO:TX:t=P:problem:kreska pseudotaktowa	!
2AA/	men	2c\	.	2c\	.	2f\	.
=81-	=81-	=81-	=81-	=81-	=81-	=81-	=81-
0.BB-	.	2d\	.	2B-\	.	2.f\	.
.	.	2c\	-men	2A/	-men	.	.
.	.	.	.	.	.	4eny\	.
*	*	*	*	*	*ij	*	*
.	.	2B-\	.	2d\	A-	2d\	.
!	!	!LO:TX:t=P:problem:kreska pseudotaktowa	!	!	!	!LO:TX:t=P:problem:kreska pseudotaktowa	!
.	.	2c\	.	2.c\	.	2f\	-men
=82-	=82-	=82-	=82-	=82-	=82-	=82-	=82-
.	.	1d	.	.	.	1f	.
.	.	.	.	8B-\L	.	.	.
.	.	.	.	8A\J	.	.	.
.	.	.	.	2B-\	.	.	.
1FF;l	.	1c;<l	.	1A;l	-men	1fl	.
*	*	*	*	*	*Xij	*	*
==	==	==	==	==	==	==	==
*-	*-	*-	*-	*-	*-	*-	*-
!!!system-decoration: s1,s2,s3,s4
!!!RDF**kern: < = below
!!!RDF**kern: l = terminal long
!!!ENC: Berenika Jozajtis
!!!END: 2022-05-08
!!!AIN: 1 alto 1 bass 1 soprn 1 tenor
!!!ENC: Marta Lawrence
!!!END: 2022-05-17
